packages/foundations/assets/icons/functional/images/security/shield_check_24.svg

<svg width="24" height="24" viewBox="0 0 24 24" fill="none" xmlns="http://www.w3.org/2000/svg">
<g clip-path="url(#clip0_187_306)">
<path fill-rule="evenodd" clip-rule="evenodd" d="M10.2931 14.707L8.29323 12.7071C7.90226 12.3161 7.90226 11.6841 8.29323 11.2932C8.68421 10.9022 9.31617 10.9022 9.70714 11.2932L11.0001 12.5861L14.2929 9.29324C14.6838 8.90225 15.3158 8.90225 15.7068 9.29324C16.0977 9.68422 16.0977 10.3162 15.7068 10.7072L11.707 14.707C11.512 14.902 11.256 15 11.0001 15C10.7441 15 10.4881 14.902 10.2931 14.707ZM11.6613 2.07482L4.52089 5.72406C4.20356 5.88667 4 6.24182 4 6.63288V9.98085C4 16.0503 6.85867 19.2686 11.7964 21.9481C11.8587 21.982 11.9298 22 12 22C12.0702 22 12.1413 21.982 12.2036 21.9481C17.1413 19.2686 20 16.0503 20 9.98085V6.63288C20 6.24182 19.7964 5.88667 19.4791 5.72406L12.3387 2.07482C12.2302 2.02494 12.1156 2 12 2C11.8844 2 11.7698 2.02494 11.6613 2.07482ZM18 7.23205V9.98339C18 14.5997 16.362 17.3673 12 20C7.638 17.3673 6 14.5997 6 9.98339V7.23205L12 4L18 7.23205Z" fill="#1A1C1F"/>
</g>
<defs>
<clipPath id="clip0_187_306">
<rect width="24" height="24" fill="white"/>
</clipPath>
</defs>
</svg>

<svg xmlns="http://www.w3.org/2000/svg" width="24" height="24" fill="none"><g clip-path="url(#a)"><path fill="#1A1C1F" fill-rule="evenodd" d="m10.293 14.707-2-2a.999.999 0 1 1 1.414-1.414L11 12.586l3.293-3.293a.999.999 0 1 1 1.414 1.414l-4 4a.997.997 0 0 1-1.414 0m1.368-12.632-7.14 3.65c-.317.162-.521.517-.521.908V9.98c0 6.07 2.859 9.288 7.796 11.967a.43.43 0 0 0 .408 0C17.14 19.268 20 16.05 20 9.981V6.633c0-.391-.204-.746-.52-.909l-7.141-3.65a.8.8 0 0 0-.678 0M18 7.232v2.751C18 14.6 16.362 17.367 12 20c-4.362-2.633-6-5.4-6-10.017V7.232L12 4z" clip-rule="evenodd"/></g><defs><clipPath id="a"><path fill="#fff" d="M0 0h24v24H0z"/></clipPath></defs></svg>
